static/img/kroki/9b8ca6163063cae4abc4f4f28754636e.svg

<?xml version="1.0" encoding="us-ascii" standalone="no"?><svg xmlns="http://www.w3.org/2000/svg" xmlns:xlink="http://www.w3.org/1999/xlink" contentStyleType="text/css" height="951px" preserveAspectRatio="none" style="width:549px;height:951px;" version="1.1" viewBox="0 0 549 951" width="549px" zoomAndPan="magnify"><defs/><g><!--class digitalocean_resource--><g id="elem_digitalocean_resource"><rect codeLine="22" fill="#3D176E" height="74.0859" id="digitalocean_resource" rx="2.5" ry="2.5" style="stroke:#000D19;stroke-width:0.5;" width="223" x="7" y="517.65"/><ellipse cx="22" cy="537.5445" fill="#ADD1B2" rx="11" ry="11" style="stroke:#181818;stroke-width:1.0;"/><path d="M24.9688,543.1852 Q24.3906,543.482 23.75,543.6227 Q23.1094,543.7789 22.4063,543.7789 Q19.9063,543.7789 18.5781,542.1383 Q17.2656,540.482 17.2656,537.357 Q17.2656,534.232 18.5781,532.5758 Q19.9063,530.9195 22.4063,530.9195 Q23.1094,530.9195 23.75,531.0758 Q24.4063,531.232 24.9688,531.5289 L24.9688,534.2477 Q24.3438,533.6695 23.75,533.4039 Q23.1563,533.1227 22.5313,533.1227 Q21.1875,533.1227 20.5,534.2008 Q19.8125,535.2633 19.8125,537.357 Q19.8125,539.4508 20.5,540.5289 Q21.1875,541.5914 22.5313,541.5914 Q23.1563,541.5914 23.75,541.3258 Q24.3438,541.0445 24.9688,540.4664 L24.9688,543.1852 Z " fill="#000000"/><text fill="#D9B8FF" font-family="Helvetica" font-size="17" lengthAdjust="spacing" textLength="181" x="41" y="543.4298">digitalocean_resource</text><line style="stroke:#000D19;stroke-width:0.5;" x1="8" x2="229" y1="557.4391" y2="557.4391"/><text fill="#D9B8FF" font-family="sans-serif" font-size="14" font-weight="bold" lengthAdjust="spacing" textLength="27" x="18" y="579.4342">urn</text><text fill="#D9B8FF" font-family="sans-serif" font-size="14" lengthAdjust="spacing" textLength="48" x="45" y="579.4342">: string</text></g><!--class digitalocean_volume--><g id="elem_digitalocean_volume"><rect codeLine="25" fill="#3D176E" height="152.9766" id="digitalocean_volume" rx="2.5" ry="2.5" style="stroke:#000D19;stroke-width:0.5;" width="215" x="153" y="791.62"/><ellipse cx="168" cy="811.5145" fill="#ADD1B2" rx="11" ry="11" style="stroke:#181818;stroke-width:1.0;"/><path d="M170.9688,817.1552 Q170.3906,817.452 169.75,817.5927 Q169.1094,817.7489 168.4063,817.7489 Q165.9063,817.7489 164.5781,816.1083 Q163.2656,814.452 163.2656,811.327 Q163.2656,808.202 164.5781,806.5458 Q165.9063,804.8895 168.4063,804.8895 Q169.1094,804.8895 169.75,805.0458 Q170.4063,805.202 170.9688,805.4989 L170.9688,808.2177 Q170.3438,807.6395 169.75,807.3739 Q169.1563,807.0927 168.5313,807.0927 Q167.1875,807.0927 166.5,808.1708 Q165.8125,809.2333 165.8125,811.327 Q165.8125,813.4208 166.5,814.4989 Q167.1875,815.5614 168.5313,815.5614 Q169.1563,815.5614 169.75,815.2958 Q170.3438,815.0145 170.9688,814.4364 L170.9688,817.1552 Z " fill="#000000"/><text fill="#D9B8FF" font-family="Helvetica" font-size="17" lengthAdjust="spacing" textLength="173" x="187" y="817.3998">digitalocean_volume</text><line style="stroke:#000D19;stroke-width:0.5;" x1="154" x2="367" y1="831.4091" y2="831.4091"/><text fill="#D9B8FF" font-family="sans-serif" font-size="14" font-weight="bold" lengthAdjust="spacing" textLength="89" x="164" y="853.4042">description</text><text fill="#D9B8FF" font-family="sans-serif" font-size="14" lengthAdjust="spacing" textLength="48" x="253" y="853.4042">: string</text><text fill="#D9B8FF" font-family="sans-serif" font-size="14" font-weight="bold" lengthAdjust="spacing" textLength="125" x="164" y="879.7011">filesystem_label</text><text fill="#D9B8FF" font-family="sans-serif" font-size="14" lengthAdjust="spacing" textLength="48" x="289" y="879.7011">: string</text><text fill="#D9B8FF" font-family="sans-serif" font-size="14" font-weight="bold" lengthAdjust="spacing" textLength="123" x="164" y="905.9979">filesystem_type</text><text fill="#D9B8FF" font-family="sans-serif" font-size="14" lengthAdjust="spacing" textLength="48" x="287" y="905.9979">: string</text><text fill="#D9B8FF" font-family="sans-serif" font-size="14" font-weight="bold" lengthAdjust="spacing" textLength="124" x="164" y="932.2948">ondemand_cost</text><text fill="#D9B8FF" font-family="sans-serif" font-size="14" lengthAdjust="spacing" textLength="57" x="288" y="932.2948">: double</text></g><!--class resource--><g id="elem_resource"><rect codeLine="31" fill="#3D176E" height="310.7578" id="resource" rx="2.5" ry="2.5" style="stroke:#000D19;stroke-width:0.5;" width="227" x="147" y="7"/><ellipse cx="215.75" cy="26.8945" fill="#ADD1B2" rx="11" ry="11" style="stroke:#181818;stroke-width:1.0;"/><path d="M218.7188,32.5352 Q218.1406,32.832 217.5,32.9727 Q216.8594,33.1289 216.1563,33.1289 Q213.6563,33.1289 212.3281,31.4883 Q211.0156,29.832 211.0156,26.707 Q211.0156,23.582 212.3281,21.9258 Q213.6563,20.2695 216.1563,20.2695 Q216.8594,20.2695 217.5,20.4258 Q218.1563,20.582 218.7188,20.8789 L218.7188,23.5977 Q218.0938,23.0195 217.5,22.7539 Q216.9063,22.4727 216.2813,22.4727 Q214.9375,22.4727 214.25,23.5508 Q213.5625,24.6133 213.5625,26.707 Q213.5625,28.8008 214.25,29.8789 Q214.9375,30.9414 216.2813,30.9414 Q216.9063,30.9414 217.5,30.6758 Q218.0938,30.3945 218.7188,29.8164 L218.7188,32.5352 Z " fill="#000000"/><text fill="#D9B8FF" font-family="Helvetica" font-size="17" lengthAdjust="spacing" textLength="71" x="241.25" y="32.7798">resource</text><line style="stroke:#000D19;stroke-width:0.5;" x1="148" x2="373" y1="46.7891" y2="46.7891"/><text fill="#D9B8FF" font-family="sans-serif" font-size="14" font-weight="bold" lengthAdjust="spacing" textLength="29" x="158" y="68.7842">age</text><text fill="#D9B8FF" font-family="sans-serif" font-size="14" lengthAdjust="spacing" textLength="66" x="187" y="68.7842">: duration</text><text fill="#D9B8FF" font-family="sans-serif" font-size="14" font-weight="bold" lengthAdjust="spacing" textLength="43" x="158" y="95.0811">atime</text><text fill="#D9B8FF" font-family="sans-serif" font-size="14" lengthAdjust="spacing" textLength="70" x="201" y="95.0811">: datetime</text><text fill="#D9B8FF" font-family="sans-serif" font-size="14" font-weight="bold" lengthAdjust="spacing" textLength="43" x="158" y="121.3779">ctime</text><text fill="#D9B8FF" font-family="sans-serif" font-size="14" lengthAdjust="spacing" textLength="70" x="201" y="121.3779">: datetime</text><text fill="#D9B8FF" font-family="sans-serif" font-size="14" font-weight="bold" lengthAdjust="spacing" textLength="14" x="158" y="147.6748">id</text><text fill="#D9B8FF" font-family="sans-serif" font-size="14" lengthAdjust="spacing" textLength="48" x="172" y="147.6748">: string</text><text fill="#D9B8FF" font-family="sans-serif" font-size="14" font-weight="bold" lengthAdjust="spacing" textLength="33" x="158" y="173.9717">kind</text><text fill="#D9B8FF" font-family="sans-serif" font-size="14" lengthAdjust="spacing" textLength="48" x="191" y="173.9717">: string</text><text fill="#D9B8FF" font-family="sans-serif" font-size="14" font-weight="bold" lengthAdjust="spacing" textLength="90" x="158" y="200.2686">last_access</text><text fill="#D9B8FF" font-family="sans-serif" font-size="14" lengthAdjust="spacing" textLength="66" x="248" y="200.2686">: duration</text><text fill="#D9B8FF" font-family="sans-serif" font-size="14" font-weight="bold" lengthAdjust="spacing" textLength="90" x="158" y="226.5654">last_update</text><text fill="#D9B8FF" font-family="sans-serif" font-size="14" lengthAdjust="spacing" textLength="66" x="248" y="226.5654">: duration</text><text fill="#D9B8FF" font-family="sans-serif" font-size="14" font-weight="bold" lengthAdjust="spacing" textLength="48" x="158" y="252.8623">mtime</text><text fill="#D9B8FF" font-family="sans-serif" font-size="14" lengthAdjust="spacing" textLength="70" x="206" y="252.8623">: datetime</text><text fill="#D9B8FF" font-family="sans-serif" font-size="14" font-weight="bold" lengthAdjust="spacing" textLength="43" x="158" y="279.1592">name</text><text fill="#D9B8FF" font-family="sans-serif" font-size="14" lengthAdjust="spacing" textLength="48" x="201" y="279.1592">: string</text><text fill="#D9B8FF" font-family="sans-serif" font-size="14" font-weight="bold" lengthAdjust="spacing" textLength="34" x="158" y="305.4561">tags</text><text fill="#D9B8FF" font-family="sans-serif" font-size="14" lengthAdjust="spacing" textLength="171" x="192" y="305.4561">: dictionary[string, string]</text></g><!--class volume--><g id="elem_volume"><rect codeLine="43" fill="#3D176E" height="231.8672" id="volume" rx="2.5" ry="2.5" style="stroke:#000D19;stroke-width:0.5;" width="277" x="265" y="438.76"/><ellipse cx="362.75" cy="458.6545" fill="#ADD1B2" rx="11" ry="11" style="stroke:#181818;stroke-width:1.0;"/><path d="M365.7188,464.2952 Q365.1406,464.592 364.5,464.7327 Q363.8594,464.8889 363.1563,464.8889 Q360.6563,464.8889 359.3281,463.2483 Q358.0156,461.592 358.0156,458.467 Q358.0156,455.342 359.3281,453.6858 Q360.6563,452.0295 363.1563,452.0295 Q363.8594,452.0295 364.5,452.1858 Q365.1563,452.342 365.7188,452.6389 L365.7188,455.3577 Q365.0938,454.7795 364.5,454.5139 Q363.9063,454.2327 363.2813,454.2327 Q361.9375,454.2327 361.25,455.3108 Q360.5625,456.3733 360.5625,458.467 Q360.5625,460.5608 361.25,461.6389 Q361.9375,462.7014 363.2813,462.7014 Q363.9063,462.7014 364.5,462.4358 Q365.0938,462.1545 365.7188,461.5764 L365.7188,464.2952 Z " fill="#000000"/><text fill="#D9B8FF" font-family="Helvetica" font-size="17" lengthAdjust="spacing" textLength="63" x="388.25" y="464.5398">volume</text><line style="stroke:#000D19;stroke-width:0.5;" x1="266" x2="541" y1="478.5491" y2="478.5491"/><text fill="#D9B8FF" font-family="sans-serif" font-size="14" font-weight="bold" lengthAdjust="spacing" textLength="190" x="276" y="500.5442">snapshot_before_delete</text><text fill="#D9B8FF" font-family="sans-serif" font-size="14" lengthAdjust="spacing" textLength="65" x="466" y="500.5442">: boolean</text><text fill="#D9B8FF" font-family="sans-serif" font-size="14" font-weight="bold" lengthAdjust="spacing" textLength="145" x="276" y="526.8411">volume_encrypted</text><text fill="#D9B8FF" font-family="sans-serif" font-size="14" lengthAdjust="spacing" textLength="65" x="421" y="526.8411">: boolean</text><text fill="#D9B8FF" font-family="sans-serif" font-size="14" font-weight="bold" lengthAdjust="spacing" textLength="97" x="276" y="553.1379">volume_iops</text><text fill="#D9B8FF" font-family="sans-serif" font-size="14" lengthAdjust="spacing" textLength="44" x="373" y="553.1379">: int64</text><text fill="#D9B8FF" font-family="sans-serif" font-size="14" font-weight="bold" lengthAdjust="spacing" textLength="96" x="276" y="579.4348">volume_size</text><text fill="#D9B8FF" font-family="sans-serif" font-size="14" lengthAdjust="spacing" textLength="44" x="372" y="579.4348">: int64</text><text fill="#D9B8FF" font-family="sans-serif" font-size="14" font-weight="bold" lengthAdjust="spacing" textLength="113" x="276" y="605.7317">volume_status</text><text fill="#D9B8FF" font-family="sans-serif" font-size="14" lengthAdjust="spacing" textLength="109" x="389" y="605.7317">: volume_status</text><text fill="#D9B8FF" font-family="sans-serif" font-size="14" font-weight="bold" lengthAdjust="spacing" textLength="153" x="276" y="632.0286">volume_throughput</text><text fill="#D9B8FF" font-family="sans-serif" font-size="14" lengthAdjust="spacing" textLength="44" x="429" y="632.0286">: int64</text><text fill="#D9B8FF" font-family="sans-serif" font-size="14" font-weight="bold" lengthAdjust="spacing" textLength="99" x="276" y="658.3254">volume_type</text><text fill="#D9B8FF" font-family="sans-serif" font-size="14" lengthAdjust="spacing" textLength="48" x="375" y="658.3254">: string</text></g><!--reverse link resource to digitalocean_resource--><g id="link_resource_digitalocean_resource"><path codeLine="52" d="M198.0156,335.1152 C171.4556,408.1152 148.19,472.08 131.66,517.52 " fill="none" id="resource-backto-digitalocean_resource" style="stroke:#FFAF37;stroke-width:2.0;"/><polygon fill="none" points="204.17,318.2,192.3772,333.0637,203.654,337.1666,204.17,318.2" style="stroke:#FFAF37;stroke-width:2.0;"/></g><!--reverse link digitalocean_resource to digitalocean_volume--><g id="link_digitalocean_resource_digitalocean_volume"><path codeLine="53" d="M142.5352,608.399 C164.6952,657.019 197.09,728.06 225.94,791.32 " fill="none" id="digitalocean_resource-backto-digitalocean_volume" style="stroke:#FFAF37;stroke-width:2.0;"/><polygon fill="none" points="135.07,592.02,137.0755,610.8874,147.9949,605.9106,135.07,592.02" style="stroke:#FFAF37;stroke-width:2.0;"/></g><!--reverse link volume to digitalocean_volume--><g id="link_volume_digitalocean_volume"><path codeLine="54" d="M343.1469,687.1271 C324.6869,727.3171 311.96,755.05 295.34,791.24 " fill="none" id="volume-backto-digitalocean_volume" style="stroke:#FFAF37;stroke-width:2.0;"/><polygon fill="none" points="350.66,670.77,337.6946,684.6227,348.5993,689.6314,350.66,670.77" style="stroke:#FFAF37;stroke-width:2.0;"/></g><!--reverse link resource to volume--><g id="link_resource_volume"><path codeLine="55" d="M323.4126,335.1012 C338.1126,375.2212 347.49,400.82 361.3,438.5 " fill="none" id="resource-backto-volume" style="stroke:#FFAF37;stroke-width:2.0;"/><polygon fill="none" points="317.22,318.2,317.7789,337.1654,329.0464,333.037,317.22,318.2" style="stroke:#FFAF37;stroke-width:2.0;"/></g><!--SRC=[XPD1Rzim38Nl_XK6UZCMe5ctfXbswG8CswKOrjs6mQ0bsXOYYGP5jyYs_lV9SPRQZjFUZFS-aO-KN1kDARf6Tgb3Lo2796oDRu31fRVCzBWXIvnUb2MKLwkf-Pcyl0hSWSFq2ze75ADWIloeZTfw325zEx0-WTfMJAtNVNbXy25Qw6L0RIo4S2l2fcW51s7qkhWfooavBNfnfPUhQpp1Y3No0RcylDJBzHHvjTMBSn-9U_CRq-LmQNSaU1BpfCMUUZ5bHmn2dWpwtp-RyHjeRNoLlXzet_jCx957-dqDcXuxkWGRXcs282F9hi7DoLIulj7bQXR-UWvMtUPIRIeZO4aX-9mnKCiAqpz9bhNii-n3hCGnJV8qnp-GRLrFQmoAJIE6XgUoh3GMmox6SRc50kqviuiwyiXhTE1rhYX8vsXg2ul78AEiKEqFwvQXIz0fObolWM3t7JKrenazwXeNE1PYByb1gVXJJJhidRRfQaqSDzF7WnlF9r3r5OtgZW7lVlRUcmFpwpZgOCt1GnDgahp0aXXpZHRx_WMHZNSIcHxFqIlUDO9wrZNKxDiRBzVldkKG_w8vMK3QFJyIdW6fumkhwgQLcTEJktrAZdVtyUzYiPX_WydyovmvqNT93biw3qngzEe_]--></g></svg>

<svg xmlns="http://www.w3.org/2000/svg" width="549" height="951" viewBox="0 0 549 951"><rect width="223" height="74.086" x="7" y="517.65" fill="#3D176E" rx="2.5" ry="2.5" style="stroke:#000d19;stroke-width:.5"/><circle cx="22" cy="537.544" r="11" fill="#ADD1B2" style="stroke:#181818;stroke-width:1"/><path d="M24.969 543.185q-.578.297-1.219.438-.64.156-1.344.156-2.5 0-3.828-1.64-1.312-1.657-1.312-4.782t1.312-4.781q1.328-1.657 3.828-1.657.703 0 1.344.157.656.156 1.219.453v2.719q-.625-.579-1.219-.844-.594-.281-1.219-.281-1.343 0-2.031 1.078-.687 1.062-.687 3.156t.687 3.172q.688 1.062 2.031 1.062.625 0 1.219-.265.594-.282 1.219-.86z"/><text x="41" y="543.43" fill="#D9B8FF" font-family="Helvetica" font-size="17" textLength="181">digitalocean_resource</text><path d="M8 557.439h221" style="stroke:#000d19;stroke-width:.5"/><text x="18" y="579.434" fill="#D9B8FF" font-family="sans-serif" font-size="14" font-weight="bold" textLength="27">urn</text><text x="45" y="579.434" fill="#D9B8FF" font-family="sans-serif" font-size="14" textLength="48">: string</text><rect width="215" height="152.977" x="153" y="791.62" fill="#3D176E" rx="2.5" ry="2.5" style="stroke:#000d19;stroke-width:.5"/><circle cx="168" cy="811.514" r="11" fill="#ADD1B2" style="stroke:#181818;stroke-width:1"/><path d="M170.969 817.155q-.578.297-1.219.438-.64.156-1.344.156-2.5 0-3.828-1.64-1.312-1.657-1.312-4.782t1.312-4.781q1.328-1.657 3.828-1.657.703 0 1.344.157.656.156 1.219.453v2.719q-.625-.578-1.219-.844-.594-.281-1.219-.281-1.344 0-2.031 1.078-.687 1.062-.687 3.156t.687 3.172q.688 1.062 2.031 1.062.625 0 1.219-.265.594-.282 1.219-.86z"/><text x="187" y="817.4" fill="#D9B8FF" font-family="Helvetica" font-size="17" textLength="173">digitalocean_volume</text><path d="M154 831.409h213" style="stroke:#000d19;stroke-width:.5"/><text x="164" y="853.404" fill="#D9B8FF" font-family="sans-serif" font-size="14" font-weight="bold" textLength="89">description</text><text x="253" y="853.404" fill="#D9B8FF" font-family="sans-serif" font-size="14" textLength="48">: string</text><text x="164" y="879.701" fill="#D9B8FF" font-family="sans-serif" font-size="14" font-weight="bold" textLength="125">filesystem_label</text><text x="289" y="879.701" fill="#D9B8FF" font-family="sans-serif" font-size="14" textLength="48">: string</text><text x="164" y="905.998" fill="#D9B8FF" font-family="sans-serif" font-size="14" font-weight="bold" textLength="123">filesystem_type</text><text x="287" y="905.998" fill="#D9B8FF" font-family="sans-serif" font-size="14" textLength="48">: string</text><text x="164" y="932.295" fill="#D9B8FF" font-family="sans-serif" font-size="14" font-weight="bold" textLength="124">ondemand_cost</text><text x="288" y="932.295" fill="#D9B8FF" font-family="sans-serif" font-size="14" textLength="57">: double</text><rect width="227" height="310.758" x="147" y="7" fill="#3D176E" rx="2.5" ry="2.5" style="stroke:#000d19;stroke-width:.5"/><circle cx="215.75" cy="26.895" r="11" fill="#ADD1B2" style="stroke:#181818;stroke-width:1"/><path d="M218.719 32.535q-.578.297-1.219.438-.64.156-1.344.156-2.5 0-3.828-1.64-1.312-1.657-1.312-4.782t1.312-4.781q1.328-1.656 3.828-1.656.703 0 1.344.156.656.156 1.219.453v2.719q-.625-.578-1.219-.844-.594-.281-1.219-.281-1.344 0-2.031 1.078-.687 1.062-.687 3.156t.687 3.172q.688 1.062 2.031 1.062.625 0 1.219-.265.594-.281 1.219-.86z"/><text x="241.25" y="32.78" fill="#D9B8FF" font-family="Helvetica" font-size="17" textLength="71">resource</text><path d="M148 46.789h225" style="stroke:#000d19;stroke-width:.5"/><text x="158" y="68.784" fill="#D9B8FF" font-family="sans-serif" font-size="14" font-weight="bold" textLength="29">age</text><text x="187" y="68.784" fill="#D9B8FF" font-family="sans-serif" font-size="14" textLength="66">: duration</text><text x="158" y="95.081" fill="#D9B8FF" font-family="sans-serif" font-size="14" font-weight="bold" textLength="43">atime</text><text x="201" y="95.081" fill="#D9B8FF" font-family="sans-serif" font-size="14" textLength="70">: datetime</text><text x="158" y="121.378" fill="#D9B8FF" font-family="sans-serif" font-size="14" font-weight="bold" textLength="43">ctime</text><text x="201" y="121.378" fill="#D9B8FF" font-family="sans-serif" font-size="14" textLength="70">: datetime</text><text x="158" y="147.675" fill="#D9B8FF" font-family="sans-serif" font-size="14" font-weight="bold" textLength="14">id</text><text x="172" y="147.675" fill="#D9B8FF" font-family="sans-serif" font-size="14" textLength="48">: string</text><text x="158" y="173.972" fill="#D9B8FF" font-family="sans-serif" font-size="14" font-weight="bold" textLength="33">kind</text><text x="191" y="173.972" fill="#D9B8FF" font-family="sans-serif" font-size="14" textLength="48">: string</text><text x="158" y="200.269" fill="#D9B8FF" font-family="sans-serif" font-size="14" font-weight="bold" textLength="90">last_access</text><text x="248" y="200.269" fill="#D9B8FF" font-family="sans-serif" font-size="14" textLength="66">: duration</text><text x="158" y="226.565" fill="#D9B8FF" font-family="sans-serif" font-size="14" font-weight="bold" textLength="90">last_update</text><text x="248" y="226.565" fill="#D9B8FF" font-family="sans-serif" font-size="14" textLength="66">: duration</text><text x="158" y="252.862" fill="#D9B8FF" font-family="sans-serif" font-size="14" font-weight="bold" textLength="48">mtime</text><text x="206" y="252.862" fill="#D9B8FF" font-family="sans-serif" font-size="14" textLength="70">: datetime</text><text x="158" y="279.159" fill="#D9B8FF" font-family="sans-serif" font-size="14" font-weight="bold" textLength="43">name</text><text x="201" y="279.159" fill="#D9B8FF" font-family="sans-serif" font-size="14" textLength="48">: string</text><text x="158" y="305.456" fill="#D9B8FF" font-family="sans-serif" font-size="14" font-weight="bold" textLength="34">tags</text><text x="192" y="305.456" fill="#D9B8FF" font-family="sans-serif" font-size="14" textLength="171">: dictionary[string, string]</text><rect width="277" height="231.867" x="265" y="438.76" fill="#3D176E" rx="2.5" ry="2.5" style="stroke:#000d19;stroke-width:.5"/><circle cx="362.75" cy="458.654" r="11" fill="#ADD1B2" style="stroke:#181818;stroke-width:1"/><path d="M365.719 464.295q-.578.297-1.219.438-.64.156-1.344.156-2.5 0-3.828-1.64-1.312-1.657-1.312-4.782t1.312-4.781q1.328-1.656 3.828-1.656.703 0 1.344.156.656.156 1.219.453v2.719q-.625-.579-1.219-.844-.594-.281-1.219-.281-1.344 0-2.031 1.078-.687 1.062-.687 3.156t.687 3.172q.688 1.062 2.031 1.062.625 0 1.219-.265.594-.281 1.219-.86z"/><text x="388.25" y="464.54" fill="#D9B8FF" font-family="Helvetica" font-size="17" textLength="63">volume</text><path d="M266 478.549h275" style="stroke:#000d19;stroke-width:.5"/><text x="276" y="500.544" fill="#D9B8FF" font-family="sans-serif" font-size="14" font-weight="bold" textLength="190">snapshot_before_delete</text><text x="466" y="500.544" fill="#D9B8FF" font-family="sans-serif" font-size="14" textLength="65">: boolean</text><text x="276" y="526.841" fill="#D9B8FF" font-family="sans-serif" font-size="14" font-weight="bold" textLength="145">volume_encrypted</text><text x="421" y="526.841" fill="#D9B8FF" font-family="sans-serif" font-size="14" textLength="65">: boolean</text><text x="276" y="553.138" fill="#D9B8FF" font-family="sans-serif" font-size="14" font-weight="bold" textLength="97">volume_iops</text><text x="373" y="553.138" fill="#D9B8FF" font-family="sans-serif" font-size="14" textLength="44">: int64</text><text x="276" y="579.435" fill="#D9B8FF" font-family="sans-serif" font-size="14" font-weight="bold" textLength="96">volume_size</text><text x="372" y="579.435" fill="#D9B8FF" font-family="sans-serif" font-size="14" textLength="44">: int64</text><text x="276" y="605.732" fill="#D9B8FF" font-family="sans-serif" font-size="14" font-weight="bold" textLength="113">volume_status</text><text x="389" y="605.732" fill="#D9B8FF" font-family="sans-serif" font-size="14" textLength="109">: volume_status</text><text x="276" y="632.029" fill="#D9B8FF" font-family="sans-serif" font-size="14" font-weight="bold" textLength="153">volume_throughput</text><text x="429" y="632.029" fill="#D9B8FF" font-family="sans-serif" font-size="14" textLength="44">: int64</text><text x="276" y="658.325" fill="#D9B8FF" font-family="sans-serif" font-size="14" font-weight="bold" textLength="99">volume_type</text><text x="375" y="658.325" fill="#D9B8FF" font-family="sans-serif" font-size="14" textLength="48">: string</text><g fill="none"><path d="M198.016 335.115c-26.56 73-49.826 136.965-66.356 182.405" style="stroke:#ffaf37;stroke-width:2"/><path d="m204.17 318.2-11.793 14.864 11.277 4.103z" style="stroke:#ffaf37;stroke-width:2"/></g><g fill="none"><path d="M142.535 608.399c22.16 48.62 54.555 119.661 83.405 182.921" style="stroke:#ffaf37;stroke-width:2"/><path d="m135.07 592.02 2.006 18.867 10.919-4.976z" style="stroke:#ffaf37;stroke-width:2"/></g><path fill="none" d="M343.147 687.127c-18.46 40.19-31.187 67.923-47.807 104.113m55.32-120.47-12.965 13.853 10.904 5.008zm-27.247-335.669c14.7 40.12 24.077 65.719 37.887 103.399m-44.08-120.3.559 18.965 11.267-4.128z" style="stroke:#ffaf37;stroke-width:2"/></svg>
